!!!OTL: GENIESST DEN REIZ DES LEBENS
!!!ARE: Europa, Mitteleuropa, Deutschland
!!!SCT: B0553
!!!YEM: Copyright 1995, estate of Helmut Schaffrath.
**kern
*ICvox
*Ivox
*M6/8
*k[b-]
*F:
{8c
=1
4f
8f
4a
8f
=2
4.d
4b-}
{8a
=3
4g
8g
8b-
8g
8e
=4
4f
4.r}
{8c
=5
4f
8f
4a
8f
=6
4.d
4b-}
{8a
=7
4g
8g
8b-
8g
8e
=8
4f
8a
4cc}
{8cc
=9
4dd
8dd
8ff
8ee
8dd
=10
4.cc
8a
8r}
{8a
=11
8g
8b-
8a
8g
8f
8e
=12
4f
4.r}
==
!!!AGN: Studenten -, Trink - Lied
!!!ONB: ESAC (Essen Associative Code) Database: BOEHME
!!!AMT: compound duple
!!!AIN: vox
!!!EED: Helmut Schaffrath
!!!EEV: 1.0
*-
